airbyte/airbyte-config/init/src/main/resources/icons/timely.svg

<svg height="252" fill="none" xmlns="http://www.w3.org/2000/svg" style="color: red;" viewBox="0 0 155 252" width="155">
<path d="M82.8111 -2.28882e-05H69.0942V41.1505H82.8111V-2.28882e-05Z" fill="#18FFC3"/>
<path d="M9.69928 36.3589L0 46.0581L27.3088 73.367L37.0081 63.6677L9.69928 36.3589Z" fill="#18FFC3"/>
<path d="M152.167 46.3591L142.468 36.6598L115.159 63.9686L124.858 73.6679L152.167 46.3591Z" fill="#18FFC3"/>
<path fill-rule="evenodd" clip-rule="evenodd" d="M96.5282 82.301H75.9529H55.3776L7.36865 130.31L27.9439 150.885L62.236 116.593V251.475H75.9529H89.6697V116.593L123.962 150.885L144.537 130.31L96.5282 82.301Z" fill="white"/>







</svg>

<svg xmlns="http://www.w3.org/2000/svg" width="155" height="252" fill="none" style="color:red"><path fill="#18FFC3" d="M82.811 0H69.094v41.15h13.717V0ZM9.7 36.359l-9.7 9.7 27.309 27.308 9.7-9.7L9.698 36.36ZM152.167 46.36l-9.699-9.7-27.309 27.309 9.699 9.699 27.309-27.309Z"/><path fill="#fff" fill-rule="evenodd" d="M96.528 82.301h-41.15L7.368 130.31l20.576 20.575 34.292-34.292v134.882H89.67V116.593l34.292 34.292 20.575-20.575-48.009-48.009Z" clip-rule="evenodd"/></svg>
